lib/flags/s/GB-WLS.svg

<svg xmlns="http://www.w3.org/2000/svg" fill="none" viewBox="0 0 16 12"><path fill="#5DAA22" fill-rule="evenodd" d="M0 0V12H16V0H0Z" clip-rule="evenodd"/><mask id="GB-WLS_svg__a" width="16" height="12" x="0" y="0" mask-type="alpha" maskUnits="userSpaceOnUse"><path fill="#fff" fill-rule="evenodd" d="M0 0V12H16V0H0Z" clip-rule="evenodd"/></mask><g fill-rule="evenodd" clip-rule="evenodd" mask="url(#GB-WLS_svg__a)"><path fill="#F7FCFF" d="M0 0V6H16V0H0Z"/><path fill="#D21034" d="M7.34589 4.45361C7.33691 4.16891 7.32826 3.89464 7.67973 3.56732C8.59623 2.75304 9.52858 2.11408 10.5702 1.5C10.3592 1.87603 10.2082 2.57499 10.7621 2.61935C10.9396 2.62216 12.8868 1.74845 12.8868 1.74845C12.2097 2.27534 11.4307 3.01069 12.3354 3.32882C11.5053 3.60435 10.8171 4.49928 11.4201 5.2201C10.9894 5.08933 10.424 5.3857 10.3222 5.71966C10.4283 5.71882 10.6156 5.73533 10.8448 5.75555C11.6744 5.82871 13.0536 5.95032 13.123 5.4732C12.6762 5.70593 11.9016 5.61101 11.8781 4.94309C11.8841 4.37033 12.6911 4.04827 13.3785 4.47742C13.4138 4.40028 13.4486 4.32302 13.4834 4.24577C13.5186 4.1675 13.5539 4.08922 13.5897 4.01107C13.3383 4.04423 12.9765 4.05931 12.7163 3.99447C13.2453 3.45935 14.0493 2.41504 14.5 1.82148C14.4008 2.56168 14.4635 4.24831 14.6358 4.59898C14.4267 4.5189 14.058 4.26413 13.943 4.01705L13.6987 4.82684C14.0928 5.67995 13.671 6.94524 13.4485 7.61282C13.3792 7.82071 13.3292 7.97064 13.3292 8.0321C13.1482 8.10471 13.0157 7.9917 12.8833 7.87872C12.8171 7.82224 12.751 7.76577 12.6787 7.7325C12.7925 8.04794 12.7117 8.54698 12.6411 8.98322C12.6146 9.14706 12.5895 9.30204 12.5767 9.43511C12.5581 9.62754 12.6379 9.7628 12.6765 9.82834C12.6854 9.84336 12.6921 9.85472 12.6949 9.86227C12.8024 9.90663 13.0521 10.029 13.0694 10.0456C13.0694 10.0456 13.3785 10.0622 13.3585 10.395C13.2074 10.1995 13.0015 10.2615 13.0015 10.2615C12.9755 10.28 12.7417 10.2011 12.7417 10.2011C12.6247 10.1182 12.2914 10.0475 11.9454 10.0622C11.7197 10.0718 11.4472 10.1461 11.3971 10.1597C11.392 10.1611 11.3892 10.1619 11.389 10.1619C11.3838 10.1619 11.103 10.3618 11.103 10.3618C11.103 10.3618 11.0353 10.3452 11.0301 10.3452L11.0296 10.3452C11.0185 10.3451 10.8435 10.3433 10.6138 10.5C10.6459 10.3237 10.7655 10.1765 10.921 10.0901C11.0294 10.03 11.1579 10.0011 11.2389 9.98297C11.2652 9.97705 11.2866 9.97226 11.3005 9.9679C11.2067 9.93435 11.0293 9.88657 10.9042 9.89881C10.8716 9.902 10.8279 9.90298 10.7785 9.90408C10.6014 9.90804 10.3522 9.91362 10.2861 10.029C10.2815 9.89414 10.4175 9.741 10.5702 9.66829C10.6466 9.63193 10.7299 9.62114 10.7872 9.61372C10.8257 9.60873 10.8525 9.60526 10.8573 9.59655C10.8882 9.54014 10.7856 9.45014 10.7534 9.4219C10.7476 9.41678 10.7441 9.41369 10.7441 9.4132C10.7441 9.40765 10.5518 9.28376 10.4163 9.42449C10.4426 9.13017 10.8777 9.12609 10.921 9.16939C10.9635 9.21377 11.006 9.25801 11.0484 9.30225C11.0909 9.3465 11.1334 9.39074 11.1758 9.43511C11.2151 9.46149 11.2543 9.48799 11.2935 9.51449C11.334 9.54189 11.3746 9.56929 11.4151 9.59655C11.5468 9.65849 11.8873 9.60859 12.0591 9.4132C12.1598 9.29873 12.162 9.08457 12.1631 8.97612C12.1633 8.95765 12.1635 8.94225 12.1641 8.93092C12.1658 8.89896 12.1688 8.85725 12.1723 8.80899C12.189 8.57947 12.2165 8.20165 12.1641 8.01816C12.1405 7.93575 11.9468 7.94585 11.6976 7.95885C11.4472 7.9719 11.1409 7.98787 10.8948 7.91587C10.5066 7.80224 10.1151 7.57471 9.87786 7.4368C9.75831 7.36731 9.67791 7.32058 9.65678 7.32263C9.64235 7.34793 9.61132 7.37285 9.57535 7.40175C9.5175 7.44821 9.44686 7.50494 9.41192 7.59003C9.32483 7.80206 9.34165 8.10325 9.41192 8.18225C9.41192 8.18225 10.0234 8.18718 10.1601 8.26328C10.5025 8.45374 10.4815 8.73829 10.4708 8.88399C10.4695 8.90187 10.4683 8.91766 10.468 8.93092C10.3321 8.88746 10.0918 8.79606 9.9598 8.74583C9.93916 8.73798 9.92117 8.73114 9.90663 8.72564C9.57079 9.30325 9.09369 9.70789 8.41311 9.89547C8.48833 9.93327 8.63849 9.96767 8.76079 9.99569C8.84991 10.0161 8.92423 10.0331 8.94398 10.0456C9.14635 10.091 9.28893 10.159 9.2873 10.3618C9.15188 10.2009 9.02006 10.205 8.91281 10.2841C8.76907 10.3484 8.66601 10.276 8.56294 10.2036C8.51138 10.1674 8.45981 10.1312 8.40314 10.112C8.2591 10.0014 7.68706 10.0694 7.52396 10.0901C7.32073 10.1117 7.08932 10.1666 6.98811 10.2894C6.93639 10.333 6.9085 10.2927 6.89613 10.2748C6.89251 10.2695 6.89022 10.2662 6.88904 10.2675C6.65518 10.1868 6.55134 10.4057 6.55134 10.4057C6.49591 10.1523 6.61576 10.0981 6.74325 10.0622L6.48341 9.90147C6.47802 9.86981 6.30464 9.8351 6.19182 9.9453C6.20223 9.71425 6.47003 9.56993 6.58248 9.64637C6.66355 9.58249 6.81102 9.57089 6.9202 9.66829C7.04302 9.76733 7.22917 9.78043 7.35199 9.74069C7.29898 9.58439 7.13008 9.49189 7.03485 9.4856C7.00601 9.47812 6.97549 9.45165 6.9405 9.42131C6.90363 9.38933 6.86179 9.35305 6.81175 9.33017C6.68817 9.27365 6.53106 9.27257 6.45725 9.33017C6.50454 9.04419 7.03485 8.96413 7.24793 9.29694C7.37574 9.43643 7.57405 9.50845 7.73707 9.53543C8.03643 9.49929 8.33886 9.24789 8.53041 9.08867C8.60294 9.02837 8.65958 8.98129 8.69412 8.96413C8.69412 8.96413 8.14979 8.40411 7.73707 8.11514C7.3518 7.84538 6.24879 8.36928 6.09955 8.44017C6.08892 8.44522 6.08312 8.44797 6.08278 8.44797C6.05642 8.69924 5.86868 8.93092 5.86868 8.93092C5.83826 8.84939 5.79934 8.77407 5.76153 8.70092C5.6871 8.55692 5.61702 8.42132 5.62481 8.26328C5.4234 8.54237 5.27758 8.69162 5.13211 8.84049C5.05778 8.91657 4.98354 8.99254 4.90203 9.0857C4.70677 9.29966 4.60678 9.55131 4.53815 9.82906C4.68372 9.91801 5.08958 9.99579 5.08958 9.99579C5.26713 9.99951 5.39787 10.104 5.39613 10.3007C5.23776 10.1263 5.07899 10.2343 5.07899 10.2343C4.94901 10.3493 4.78382 10.2974 4.626 10.2343C4.48914 10.0785 3.82746 10.0304 3.51319 10.2177C3.28943 10.4347 2.97835 10.4545 2.89383 10.3226C2.89383 10.3226 2.75364 10.3173 2.50878 10.4057C2.57144 10.0011 2.80536 10.112 2.80536 10.112C2.80364 10.0908 2.8045 10.0765 2.80537 10.0623C2.80623 10.048 2.8071 10.0337 2.80536 10.0124L2.71688 9.97919C2.55904 9.90491 2.36332 9.92319 2.27512 10.0011C2.33543 9.73604 2.56634 9.73447 2.73807 9.76261C2.76066 9.73588 2.77575 9.68801 2.78962 9.64398C2.79493 9.62714 2.80006 9.61087 2.80536 9.59655C2.79727 9.58789 2.78909 9.57896 2.78082 9.56993C2.69162 9.47259 2.59204 9.36393 2.48245 9.46077C2.58744 9.00655 3.10887 9.35432 3.29001 9.47513C3.30693 9.48641 3.32088 9.49572 3.33125 9.5022C3.70075 9.63443 4.66311 8.12362 4.71012 8.01816C4.43605 8.00504 4.12869 8.03546 3.91383 8.11514C3.85293 8.31352 3.7447 8.41772 3.61758 8.5401C3.59655 8.56035 3.575 8.58109 3.55306 8.60284C3.55637 8.03236 3.30307 7.74445 2.93975 7.3315C2.91958 7.30858 2.89908 7.28527 2.87826 7.26151C2.42406 6.94426 2.22315 6.30506 2.18663 6.09633C2.11706 6.29106 2.06568 6.35021 2.05047 6.36773C2.04742 6.37124 2.04582 6.37308 2.04582 6.374C1.94485 6.49088 1.63571 6.45875 1.70527 6.4126C1.7485 6.40369 1.95235 6.07971 1.95235 6.07971L2.04084 5.20948C1.97508 5.18036 1.9252 5.05109 1.86507 4.89528C1.84557 4.84475 1.825 4.79144 1.80245 4.73783C1.70534 4.50695 1.5758 4.2713 1.5 4.24957C1.64389 4.22295 1.83338 4.22046 1.95235 4.36394C2.05774 4.49103 2.09534 4.58931 2.12743 4.67316C2.14529 4.71983 2.16144 4.76204 2.18663 4.80226C2.13688 4.67493 2.17389 4.58712 2.23249 4.44813C2.2566 4.39094 2.28437 4.32509 2.31124 4.24425C2.31127 4.2313 2.3114 4.21884 2.31152 4.20682C2.31282 4.07972 2.31361 4.002 2.18663 3.92273C2.44103 3.91629 2.50854 4.11376 2.52864 4.17253C2.53164 4.18132 2.53359 4.187 2.53494 4.18845C2.64589 4.34244 2.60006 4.46829 2.56331 4.56919C2.53895 4.63606 2.51859 4.69196 2.55051 4.73783C2.56957 4.72244 2.58557 4.70043 2.60159 4.67841C2.63366 4.63432 2.66577 4.59017 2.7225 4.59898C2.79368 4.51595 2.84751 4.4259 2.84213 4.23894C3.0213 4.3479 2.97757 4.50819 2.92001 4.66541C2.93068 4.90063 2.89965 4.96502 2.75364 5.04805C2.60741 5.14084 2.57984 5.21783 2.59724 5.33105C2.62848 5.36664 2.64982 5.44208 2.67734 5.53934C2.7211 5.69398 2.78046 5.90378 2.92001 6.09633C3.12619 6.38081 3.45621 6.64129 3.62649 6.77569C3.68051 6.81833 3.71845 6.84828 3.73125 6.86227C3.75274 6.82753 3.84047 6.75457 3.92377 6.6853C3.97395 6.64357 4.02252 6.60318 4.05402 6.57329C3.95095 6.48803 4.02095 5.71983 4.22939 5.02008C4.42923 4.34918 4.76437 3.74405 4.82914 3.73407C4.82914 3.7285 4.74065 3.51218 4.74065 3.51218C4.74065 3.51218 4.31723 3.57978 4.24156 3.99447C4.18935 3.90825 4.1375 3.77856 4.1375 3.77856C4.1375 3.77856 3.76888 4.26064 3.76365 4.24957C3.66028 4.18266 3.61948 3.90614 3.58911 3.70028C3.57654 3.6151 3.56576 3.54201 3.55306 3.50089C3.35436 3.49164 3.20556 3.48248 3.05672 3.4733C2.90813 3.46415 2.7595 3.45499 2.56112 3.44575C2.56112 3.44575 2.59724 3.75622 2.59724 3.75067C2.4563 3.75347 1.5 2.91511 1.56161 2.27525C1.91438 2.57062 2.46292 2.92066 2.86269 3.00731C2.81016 3.03485 2.75768 3.06248 2.70519 3.09011C2.65199 3.11812 2.59878 3.14613 2.54552 3.17405C3.64199 3.27424 4.77704 3.05737 4.77181 3.05182C4.64915 2.77912 4.24655 2.78012 4.24655 2.78012L4.22939 3.00731C4.22939 3.00731 3.72879 3.0346 3.72627 3.02922C3.67535 2.75186 3.42968 2.7469 3.42968 2.7469C3.23736 2.72051 3.07336 2.74072 2.90929 2.76095C2.82744 2.77104 2.74558 2.78113 2.66017 2.78543C2.97913 2.35886 3.39892 2.327 3.82006 2.29504C3.89654 2.28923 3.97306 2.28342 4.04904 2.27525C4.08507 2.05113 4.26968 1.98581 4.48581 1.95373C4.48581 1.95373 5.49997 2.00886 5.50518 2.00886C5.63567 1.82518 6.53014 1.5 6.74325 1.5C6.71023 1.75178 6.27112 2.18859 6.15318 2.26993C6.03362 2.46303 6.04402 2.48276 6.08963 2.56922C6.0941 2.57769 6.0989 2.5868 6.10395 2.59677C6.1239 2.63376 6.1359 2.65281 6.1479 2.67186C6.15989 2.6909 6.17189 2.70994 6.19182 2.7469C6.38561 2.67073 6.68071 3.03248 6.72633 3.17405C6.50753 3.1461 6.24063 3.13349 6.24414 3.23451C6.24706 3.28482 6.32398 3.31637 6.39439 3.34524C6.42808 3.35906 6.46028 3.37227 6.48217 3.38663C6.6078 3.51218 6.64934 3.62304 6.6554 3.77856C6.60164 3.77548 6.54237 3.74488 6.48309 3.71427C6.36453 3.65306 6.24592 3.59182 6.17125 3.75067C6.11779 3.86722 6.16013 3.94165 6.30014 3.99447C6.55691 4.06949 6.72633 4.3546 6.72633 4.51595C6.72633 4.5948 6.60758 4.53341 6.46956 4.46206C6.32516 4.38741 6.15968 4.30187 6.08704 4.3546C6.00024 4.41762 6.05579 4.73778 6.08191 4.88836C6.087 4.91771 6.09097 4.94062 6.09256 4.95392C6.12118 5.19429 6.15892 5.44449 6.17623 5.4978C6.33725 5.46308 6.49835 5.42826 6.65946 5.39344C6.82449 5.35777 6.98952 5.3221 7.15448 5.28654C7.29694 5.14811 7.36119 4.91835 7.34701 4.67138C7.35043 4.59746 7.34815 4.52521 7.34589 4.45361ZM13.085 5.02679C12.9357 4.85798 12.7827 4.80039 12.6551 4.80226C12.4685 4.80496 12.3359 4.93544 12.3485 5.0341C12.3903 5.36047 13.0132 5.24725 13.085 5.02679Z"/></g></svg>

<svg xmlns="http://www.w3.org/2000/svg" fill="none" viewBox="0 0 16 12"><path fill="#5DAA22" fill-rule="evenodd" d="M0 0v12h16V0H0z" clip-rule="evenodd"/><mask id="GB-WLS_svg__a" width="16" height="12" x="0" y="0" maskUnits="userSpaceOnUse"><path fill="#fff" fill-rule="evenodd" d="M0 0v12h16V0H0z" clip-rule="evenodd"/></mask><g fill-rule="evenodd" clip-rule="evenodd" mask="url(#GB-WLS_svg__a)"><path fill="#F7FCFF" d="M0 0v6h16V0H0z"/><path fill="#D21034" d="M7.346 4.454c-.01-.285-.018-.56.334-.887.916-.814 1.849-1.453 2.89-2.067-.21.376-.362 1.075.192 1.12.178.002 2.125-.872 2.125-.872-.677.527-1.456 1.263-.552 1.58-.83.276-1.518 1.171-.915 1.892-.43-.13-.996.166-1.098.5.106-.001.294.015.523.036.83.073 2.209.194 2.278-.283-.447.233-1.221.138-1.245-.53.006-.573.813-.895 1.5-.466l.105-.231c.036-.079.07-.157.107-.235-.252.033-.614.048-.874-.017.53-.535 1.333-1.579 1.784-2.173-.1.74-.037 2.427.136 2.778-.21-.08-.578-.335-.693-.582l-.244.81c.394.853-.028 2.118-.25 2.786-.07.208-.12.358-.12.42-.18.072-.313-.041-.446-.154a.915.915 0 00-.204-.146c.114.315.033.814-.038 1.25-.026.164-.052.319-.064.452a.61.61 0 00.1.393.267.267 0 01.018.034c.107.045.357.167.374.184 0 0 .31.016.29.349-.152-.195-.357-.133-.357-.133-.027.018-.26-.06-.26-.06-.117-.084-.45-.155-.797-.14-.225.01-.498.084-.548.098l-.008.002c-.005 0-.286.2-.286.2s-.068-.017-.073-.017c-.011 0-.186-.002-.416.155a.602.602 0 01.307-.41 1.2 1.2 0 01.318-.107c.026-.006.048-.01.061-.015a1.076 1.076 0 00-.396-.07 1.872 1.872 0 01-.126.006c-.177.004-.426.01-.492.125-.005-.135.132-.288.284-.36a.712.712 0 01.217-.055c.039-.005.065-.009.07-.017.031-.057-.071-.147-.104-.175a.076.076 0 01-.009-.009c0-.005-.192-.13-.328.011.027-.294.462-.298.505-.255l.127.133.128.133a43.23 43.23 0 01.24.162c.13.061.471.012.643-.184.1-.114.103-.328.104-.437l.001-.045.008-.122c.017-.23.044-.607-.008-.79-.024-.083-.217-.073-.466-.06-.25.013-.557.029-.803-.043-.388-.114-.78-.341-1.017-.48-.12-.069-.2-.115-.221-.113a.367.367 0 01-.082.079c-.057.046-.128.103-.163.188-.087.212-.07.513 0 .592 0 0 .611.005.748.081.342.19.322.475.31.621l-.002.047a12.672 12.672 0 01-.561-.205c-.336.577-.813.982-1.494 1.17.075.037.225.072.348.1.089.02.163.037.183.05.202.045.345.113.343.316-.135-.161-.267-.157-.374-.078-.144.064-.247-.008-.35-.08a.657.657 0 00-.16-.092c-.144-.11-.716-.043-.879-.022-.203.022-.435.077-.536.2-.052.043-.08.003-.092-.015-.003-.005-.006-.009-.007-.008-.234-.08-.338.139-.338.139-.055-.254.065-.308.192-.344l-.26-.16c-.005-.032-.178-.067-.291.043.01-.23.278-.375.39-.299a.268.268 0 01.338.022.492.492 0 00.432.073.408.408 0 00-.317-.255.282.282 0 01-.095-.065.554.554 0 00-.128-.09c-.124-.057-.28-.058-.355 0 .048-.287.578-.367.79-.034.129.14.327.211.49.238.3-.036.602-.287.793-.446.073-.06.13-.108.164-.125 0 0-.544-.56-.957-.849-.385-.27-1.488.254-1.637.325a.374.374 0 01-.017.008c-.027.251-.214.483-.214.483a2.098 2.098 0 00-.107-.23c-.075-.144-.145-.28-.137-.438-.202.28-.347.429-.493.577-.074.077-.148.153-.23.246-.195.214-.295.465-.364.743.146.089.552.167.552.167.177.004.308.108.306.305-.158-.175-.317-.067-.317-.067-.13.115-.295.063-.453 0-.137-.155-.799-.204-1.113-.016-.224.217-.535.236-.62.105 0 0-.14-.006-.384.083.062-.405.296-.294.296-.294a.315.315 0 010-.05c.001-.014.002-.028 0-.05l-.088-.033c-.158-.074-.354-.056-.442.022.06-.265.291-.267.463-.238a.375.375 0 00.052-.119l.015-.047a3.689 3.689 0 01-.024-.027c-.09-.097-.189-.206-.299-.11.105-.453.627-.106.808.015l.041.027c.37.132 1.332-1.378 1.38-1.484-.275-.013-.582.017-.797.097-.061.199-.17.303-.296.425l-.065.063c.003-.57-.25-.859-.613-1.271-.02-.023-.04-.047-.062-.07-.454-.318-.655-.957-.691-1.166-.07.195-.121.254-.137.272l-.004.006c-.101.117-.41.085-.34.039.042-.01.246-.333.246-.333l.089-.87c-.066-.03-.116-.159-.176-.315-.02-.05-.04-.104-.063-.157-.097-.231-.226-.467-.302-.488.144-.027.333-.03.452.114a.95.95 0 01.175.31c.018.046.034.088.06.128-.05-.127-.013-.215.045-.354.025-.057.052-.123.08-.204v-.037c0-.127.002-.205-.125-.284.254-.007.322.19.342.25a.075.075 0 00.006.015c.11.154.065.28.028.381-.024.067-.044.123-.012.169a.295.295 0 00.05-.06c.033-.044.065-.088.122-.079a.466.466 0 00.12-.36c.178.109.135.27.077.426.01.236-.02.3-.166.383-.147.093-.174.17-.157.283a.629.629 0 01.08.208c.044.155.103.365.243.557.206.285.536.545.706.68.055.042.092.072.105.086.022-.034.11-.107.193-.177.05-.041.099-.082.13-.112-.103-.085-.033-.853.175-1.553.2-.67.535-1.276.6-1.286 0-.006-.088-.222-.088-.222s-.424.068-.5.482c-.052-.086-.103-.215-.103-.215s-.37.482-.374.47c-.104-.066-.145-.343-.175-.549a1.563 1.563 0 00-.036-.2c-.199-.008-.347-.018-.496-.027-.149-.009-.297-.018-.496-.027l.036.305c-.14.002-1.097-.836-1.035-1.476.352.296.9.646 1.3.732l-.157.083-.16.084a8.672 8.672 0 002.227-.122c-.123-.273-.525-.272-.525-.272l-.018.227s-.5.028-.503.022c-.05-.277-.296-.282-.296-.282a1.913 1.913 0 00-.52.014 3.42 3.42 0 01-.25.024c.32-.426.739-.458 1.16-.49a8.47 8.47 0 00.229-.02c.036-.224.22-.29.437-.321l1.02.055c.13-.184 1.024-.509 1.237-.509-.033.252-.472.689-.59.77-.12.193-.109.213-.063.3l.014.027c.02.037.032.056.044.075.012.019.024.038.044.075.194-.076.489.285.534.427-.218-.028-.485-.04-.482.06.003.05.08.082.15.111a.566.566 0 01.088.042.526.526 0 01.173.392.475.475 0 01-.172-.065c-.118-.06-.237-.122-.312.037-.053.116-.01.19.13.243.256.075.425.36.425.522 0 .079-.118.017-.256-.054-.145-.075-.31-.16-.383-.107-.087.063-.031.383-.005.533l.01.066c.03.24.067.49.084.544l.483-.105.495-.106c.143-.139.207-.369.193-.616a2.778 2.778 0 00-.001-.217zm5.739.573c-.15-.169-.302-.227-.43-.225-.186.003-.32.133-.306.232.041.326.664.213.736-.007z"/></g></svg>
